; G-Code generated by Simplify3D(R) Version 3.0.1
; Aug 26, 2015 at 5:20:43 PM
; Settings Summary
;   processName,Process1
;   applyToModels,roundCoupler,roundCoupler(2),roundCoupler(3)
;   profileName,PrinterBot Simple Metal Custom (modified)
;   profileVersion,2015-05-01 08:00:00
;   baseProfile,Default (modified)
;   printMaterial,PLA
;   printQuality,Medium
;   printExtruders,
;   extruderName,Primary Extruder
;   extruderToolheadNumber,0
;   extruderDiameter,0.4
;   extruderAutoWidth,0
;   extruderWidth,0.4
;   extrusionMultiplier,1
;   extruderUseRetract,1
;   extruderRetractionDistance,1
;   extruderExtraRestartDistance,0
;   extruderRetractionZLift,0
;   extruderRetractionSpeed,1800
;   extruderUseCoasting,0
;   extruderCoastingDistance,0.2
;   extruderUseWipe,0
;   extruderWipeDistance,5
;   primaryExtruder,0
;   layerHeight,0.2
;   topSolidLayers,3
;   bottomSolidLayers,3
;   perimeterOutlines,2
;   printPerimetersInsideOut,1
;   startPointOption,2
;   startPointOriginX,0
;   startPointOriginY,0
;   startPointOriginZ,300
;   sequentialIslands,0
;   spiralVaseMode,0
;   firstLayerHeightPercentage,90
;   firstLayerWidthPercentage,100
;   firstLayerUnderspeed,0.5
;   useRaft,0
;   raftExtruder,0
;   raftLayers,3
;   raftOffset,3
;   raftSeparationDistance,0.14
;   raftInfill,85
;   disableRaftBaseLayers,0
;   useSkirt,1
;   skirtExtruder,0
;   skirtLayers,1
;   skirtOutlines,3
;   skirtOffset,4
;   usePrimePillar,0
;   primePillarExtruder,999
;   primePillarWidth,12
;   primePillarLocation,7
;   primePillarSpeedMultiplier,1
;   useOozeShield,0
;   oozeShieldExtruder,999
;   oozeShieldOffset,2
;   oozeShieldOutlines,1
;   oozeShieldSidewallShape,1
;   oozeShieldSidewallAngle,30
;   oozeShieldSpeedMultiplier,1
;   infillExtruder,0
;   internalInfillPattern,Rectilinear
;   externalInfillPattern,Rectilinear
;   infillPercentage,20
;   outlineOverlapPercentage,15
;   infillExtrusionWidthPercentage,100
;   minInfillLength,5
;   infillLayerInterval,1
;   infillAngles,45,-45
;   overlapInfillAngles,0
;   generateSupport,0
;   supportExtruder,0
;   supportInfillPercentage,30
;   supportExtraInflation,0
;   denseSupportLayers,0
;   denseSupportInfillPercentage,70
;   supportLayerInterval,1
;   supportHorizontalPartOffset,0.3
;   supportUpperSeparationLayers,1
;   supportLowerSeparationLayers,1
;   supportType,0
;   supportGridSpacing,4
;   maxOverhangAngle,45
;   supportAngles,0
;   temperatureName,Primary Extruder,Heated Bed
;   temperatureNumber,0,1
;   temperatureSetpointCount,2,3
;   temperatureSetpointLayers,1,2,1,2,3
;   temperatureSetpointTemperatures,205,195,70,65,60
;   temperatureStabilizeAtStartup,1,1
;   temperatureHeatedBed,0,1
;   temperatureRelayBetweenLayers,0,0
;   temperatureRelayBetweenLoops,0,0
;   fanLayers,1,2
;   fanSpeeds,0,100
;   blipFanToFullPower,1
;   adjustSpeedForCooling,1
;   minSpeedLayerTime,15
;   minCoolingSpeedSlowdown,20
;   increaseFanForCooling,0
;   minFanLayerTime,45
;   maxCoolingFanSpeed,100
;   increaseFanForBridging,0
;   bridgingFanSpeed,100
;   use5D,1
;   relativeEdistances,0
;   allowEaxisZeroing,1
;   independentExtruderAxes,0
;   includeM10123,0
;   stickySupport,1
;   applyToolheadOffsets,0
;   gcodeXoffset,0
;   gcodeYoffset,0
;   gcodeZoffset,0
;   overrideMachineDefinition,1
;   machineTypeOverride,0
;   strokeXoverride,150
;   strokeYoverride,150
;   strokeZoverride,150
;   originOffsetXoverride,0
;   originOffsetYoverride,0
;   originOffsetZoverride,0
;   homeXdirOverride,-1
;   homeYdirOverride,-1
;   homeZdirOverride,-1
;   flipXoverride,1
;   flipYoverride,-1
;   flipZoverride,1
;   toolheadOffsets,0,0|0,0|0,0|0,0|0,0|0,0
;   overrideFirmwareConfiguration,1
;   firmwareTypeOverride,RepRap (Marlin/Repetier/Sprinter)
;   GPXconfigOverride,r2
;   baudRateOverride,250000
;   overridePrinterModels,1
;   printerModelsOverride
;   startingGcode,G28 X0 Y0 ; home X and Y axes, G29 ; probe Z
;   layerChangeGcode,
;   retractionGcode,
;   toolChangeGcode,
;   endingGcode,M104 S0 T0 ; turn off extruder,M140 S0 T1 ; turn off bed,G28 X0 ; home X axis,M84 ; disable motors
;   createX3G,0
;   celebration,0
;   celebrationSong,Random Song
;   createMB5G,0
;   postProcessing,
;   defaultSpeed,2700
;   outlineUnderspeed,0.8
;   solidInfillUnderspeed,0.8
;   supportUnderspeed,0.8
;   rapidXYspeed,4200
;   rapidZspeed,1002
;   minBridgingArea,50
;   bridgingExtraInflation,0
;   bridgingExtrusionMultiplier,1
;   bridgingSpeedMultiplier,1
;   filamentDiameter,1.75
;   filamentPricePerKg,46
;   filamentDensity,1.25
;   useMinPrintHeight,0
;   minPrintHeight,0
;   useMaxPrintHeight,0
;   maxPrintHeight,0
;   useDiaphragm,0
;   diaphragmLayerInterval,20
;   robustSlicing,1
;   mergeAllIntoSolid,0
;   onlyRetractWhenCrossingOutline,1
;   retractBetweenLayers,1
;   useRetractionMinTravel,0
;   retractionMinTravel,3
;   retractWhileWiping,0
;   onlyWipeOutlines,1
;   avoidCrossingOutline,0
;   maxMovementDetourFactor,3
;   toolChangeRetractionDistance,12
;   toolChangeExtraRestartDistance,-0.5
;   toolChangeRetractionSpeed,600
;   allowThinWallGapFill,1
;   thinWallAllowedOverlapPercentage,10
;   horizontalSizeCompensation,0
G90
M82
M106 S0
M140 S70
M190 S70
M104 S205 T0
M109 S205 T0
G28 X0 Y0 ; home X and Y axes
 G29 ; probe Z
G92 E0
G1 E-1.0000 F1800
G1 Z0.180 F1002
; layer 1, Z = 0.18
T0
; tool H0.200 W0.400
; skirt
G1 X68.684 Y57.927 F4200
G1 E0.0000 F540
G92 E0
G1 X69.144 Y57.403 E0.0232 F1112
G1 X69.166 Y57.379 E0.0243
G1 X69.373 Y57.172 E0.0340
G1 X69.397 Y57.150 E0.0351
G1 X69.925 Y56.686 E0.0585
G1 X69.951 Y56.665 E0.0596
G1 X70.187 Y56.483 E0.0695
G1 X70.214 Y56.464 E0.0706
G1 X70.799 Y56.074 E0.0940
G1 X70.827 Y56.056 E0.0951
G1 X71.081 Y55.910 E0.1048
G1 X71.109 Y55.895 E0.1059
G1 X71.734 Y55.586 E0.1291
G1 X71.764 Y55.573 E0.1302
G1 X72.036 Y55.460 E0.1400
G1 X72.067 Y55.449 E0.1410
G1 X72.730 Y55.224 E0.1643
G1 X72.761 Y55.214 E0.1654
G1 X73.046 Y55.138 E0.1752
G1 X73.078 Y55.130 E0.1763
G1 X73.764 Y54.994 E0.1996
G1 X73.797 Y54.989 E0.2007
G1 X74.089 Y54.950 E0.2105
G1 X74.121 Y54.947 E0.2116
G1 X74.820 Y54.901 E0.2349
G1 X74.853 Y54.900 E0.2359
G1 X75.147 Y54.900 E0.2457
G1 X75.180 Y54.901 E0.2468
G1 X75.879 Y54.947 E0.2701
G1 X75.911 Y54.950 E0.2712
G1 X76.203 Y54.989 E0.2810
G1 X76.236 Y54.994 E0.2821
G1 X76.922 Y55.130 E0.3054
G1 X76.954 Y55.138 E0.3065
G1 X77.239 Y55.214 E0.3163
G1 X77.270 Y55.224 E0.3174
G1 X77.933 Y55.449 E0.3406
G1 X77.964 Y55.460 E0.3417
G1 X78.236 Y55.573 E0.3515
G1 X78.266 Y55.586 E0.3526
G1 X78.894 Y55.896 E0.3759
G1 X78.922 Y55.912 E0.3770
G1 X79.178 Y56.059 E0.3868
G1 X79.205 Y56.076 E0.3879
G1 X79.787 Y56.465 E0.4112
G1 X79.814 Y56.484 E0.4123
G1 X80.048 Y56.663 E0.4221
G1 X80.073 Y56.684 E0.4231
G1 X80.599 Y57.146 E0.4464
G1 X80.623 Y57.168 E0.4475
G1 X80.832 Y57.377 E0.4573
G1 X80.854 Y57.400 E0.4584
G1 X81.314 Y57.925 E0.4816
G1 X81.334 Y57.950 E0.4827
G1 X81.513 Y58.182 E0.4924
G1 X81.532 Y58.209 E0.4935
G1 X81.921 Y58.790 E0.5168
G1 X81.938 Y58.817 E0.5178
G1 X82.085 Y59.072 E0.5276
G1 X82.101 Y59.101 E0.5287
G1 X82.412 Y59.732 E0.5521
G1 X82.426 Y59.762 E0.5532
G1 X82.539 Y60.035 E0.5631
G1 X82.551 Y60.066 E0.5642
G1 X82.776 Y60.730 E0.5875
G1 X82.786 Y60.761 E0.5886
G1 X82.862 Y61.046 E0.5984
G1 X82.870 Y61.078 E0.5995
G1 X83.006 Y61.764 E0.6227
G1 X83.011 Y61.797 E0.6238
G1 X83.050 Y62.089 E0.6336
G1 X83.053 Y62.121 E0.6347
G1 X83.099 Y62.817 E0.6579
G1 X83.100 Y62.849 E0.6590
G1 X83.100 Y63.142 E0.6687
G1 X83.099 Y63.175 E0.6698
G1 X83.054 Y63.873 E0.6931
G1 X83.050 Y63.905 E0.6942
G1 X83.012 Y64.197 E0.7040
G1 X83.007 Y64.230 E0.7050
G1 X82.871 Y64.916 E0.7283
G1 X82.863 Y64.948 E0.7294
G1 X82.787 Y65.233 E0.7392
G1 X82.778 Y65.264 E0.7403
G1 X82.553 Y65.927 E0.7636
G1 X82.542 Y65.958 E0.7647
G1 X82.429 Y66.230 E0.7745
G1 X82.416 Y66.260 E0.7756
G1 X82.107 Y66.888 E0.7989
G1 X82.091 Y66.917 E0.7999
G1 X81.944 Y67.172 E0.8097
G1 X81.927 Y67.200 E0.8108
G1 X81.538 Y67.783 E0.8341
G1 X81.519 Y67.809 E0.8352
G1 X81.340 Y68.043 E0.8450
G1 X81.319 Y68.068 E0.8461
G1 X80.858 Y68.595 E0.8694
G1 X80.836 Y68.619 E0.8705
G1 X80.628 Y68.828 E0.8803
G1 X80.604 Y68.850 E0.8814
G1 X80.433 Y69.000 E0.8889
G1 X80.599 Y69.146 E0.8963
G1 X80.623 Y69.168 E0.8974
G1 X80.832 Y69.377 E0.9072
G1 X80.854 Y69.400 E0.9083
G1 X81.314 Y69.925 E0.9314
G1 X81.334 Y69.950 E0.9325
G1 X81.513 Y70.182 E0.9423
G1 X81.532 Y70.209 E0.9433
G1 X81.921 Y70.790 E0.9666
G1 X81.938 Y70.817 E0.9677
G1 X82.085 Y71.072 E0.9775
G1 X82.101 Y71.101 E0.9786
G1 X82.412 Y71.732 E1.0020
G1 X82.426 Y71.762 E1.0031
G1 X82.539 Y72.035 E1.0129
G1 X82.551 Y72.066 E1.0140
G1 X82.776 Y72.730 E1.0373
G1 X82.786 Y72.761 E1.0384
G1 X82.862 Y73.046 E1.0482
G1 X82.870 Y73.078 E1.0493
G1 X83.006 Y73.764 E1.0726
G1 X83.011 Y73.797 E1.0737
G1 X83.050 Y74.089 E1.0835
G1 X83.053 Y74.121 E1.0846
G1 X83.099 Y74.817 E1.1077
G1 X83.100 Y74.849 E1.1088
G1 X83.100 Y75.142 E1.1186
G1 X83.099 Y75.175 E1.1197
G1 X83.054 Y75.873 E1.1429
G1 X83.050 Y75.905 E1.1440
G1 X83.012 Y76.197 E1.1538
G1 X83.007 Y76.230 E1.1549
G1 X82.871 Y76.916 E1.1782
G1 X82.863 Y76.948 E1.1793
G1 X82.787 Y77.233 E1.1891
G1 X82.778 Y77.264 E1.1901
G1 X82.553 Y77.927 E1.2134
G1 X82.542 Y77.958 E1.2145
G1 X82.429 Y78.230 E1.2243
G1 X82.416 Y78.260 E1.2254
G1 X82.107 Y78.888 E1.2487
G1 X82.091 Y78.917 E1.2498
G1 X81.944 Y79.172 E1.2596
G1 X81.927 Y79.200 E1.2607
G1 X81.538 Y79.783 E1.2840
G1 X81.519 Y79.809 E1.2850
G1 X81.340 Y80.043 E1.2948
G1 X81.319 Y80.068 E1.2959
G1 X80.858 Y80.595 E1.3192
G1 X80.836 Y80.619 E1.3203
G1 X80.628 Y80.828 E1.3301
G1 X80.604 Y80.850 E1.3312
G1 X80.433 Y81.000 E1.3388
G1 X80.599 Y81.146 E1.3461
G1 X80.623 Y81.168 E1.3472
G1 X80.832 Y81.377 E1.3570
G1 X80.854 Y81.400 E1.3581
G1 X81.314 Y81.925 E1.3813
G1 X81.334 Y81.950 E1.3824
G1 X81.513 Y82.182 E1.3921
G1 X81.532 Y82.209 E1.3932
G1 X81.921 Y82.790 E1.4165
G1 X81.938 Y82.817 E1.4175
G1 X82.085 Y83.072 E1.4273
G1 X82.101 Y83.101 E1.4284
G1 X82.412 Y83.732 E1.4518
G1 X82.426 Y83.762 E1.4529
G1 X82.539 Y84.035 E1.4628
G1 X82.551 Y84.066 E1.4639
G1 X82.776 Y84.730 E1.4872
G1 X82.786 Y84.761 E1.4883
G1 X82.862 Y85.046 E1.4981
G1 X82.870 Y85.078 E1.4991
G1 X83.006 Y85.764 E1.5224
G1 X83.011 Y85.797 E1.5235
G1 X83.050 Y86.089 E1.5333
G1 X83.053 Y86.121 E1.5344
G1 X83.099 Y86.817 E1.5576
G1 X83.100 Y86.849 E1.5587
G1 X83.100 Y87.142 E1.5684
G1 X83.099 Y87.175 E1.5695
G1 X83.054 Y87.873 E1.5928
G1 X83.050 Y87.905 E1.5938
G1 X83.012 Y88.197 E1.6036
G1 X83.007 Y88.230 E1.6047
G1 X82.871 Y88.916 E1.6280
G1 X82.863 Y88.948 E1.6291
G1 X82.787 Y89.233 E1.6389
G1 X82.778 Y89.264 E1.6400
G1 X82.553 Y89.927 E1.6633
G1 X82.542 Y89.958 E1.6644
G1 X82.429 Y90.230 E1.6742
G1 X82.416 Y90.260 E1.6753
G1 X82.107 Y90.888 E1.6985
G1 X82.091 Y90.917 E1.6996
G1 X81.944 Y91.172 E1.7094
G1 X81.927 Y91.200 E1.7105
G1 X81.538 Y91.783 E1.7338
G1 X81.519 Y91.809 E1.7349
G1 X81.340 Y92.043 E1.7447
G1 X81.319 Y92.068 E1.7458
G1 X80.858 Y92.595 E1.7691
G1 X80.836 Y92.619 E1.7702
G1 X80.628 Y92.828 E1.7800
G1 X80.604 Y92.850 E1.7810
G1 X80.075 Y93.314 E1.8044
G1 X80.050 Y93.335 E1.8055
G1 X79.815 Y93.515 E1.8154
G1 X79.788 Y93.534 E1.8165
G1 X79.205 Y93.924 E1.8398
G1 X79.178 Y93.941 E1.8409
G1 X78.922 Y94.088 E1.8507
G1 X78.894 Y94.104 E1.8518
G1 X78.266 Y94.414 E1.8751
G1 X78.236 Y94.427 E1.8761
G1 X77.964 Y94.540 E1.8859
G1 X77.933 Y94.551 E1.8870
G1 X77.270 Y94.776 E1.9103
G1 X77.239 Y94.786 E1.9114
G1 X76.954 Y94.862 E1.9212
G1 X76.922 Y94.870 E1.9223
G1 X76.236 Y95.006 E1.9456
G1 X76.203 Y95.011 E1.9467
G1 X75.911 Y95.050 E1.9565
G1 X75.879 Y95.053 E1.9576
G1 X75.180 Y95.099 E1.9808
G1 X75.147 Y95.100 E1.9819
G1 X74.853 Y95.100 E1.9917
G1 X74.820 Y95.099 E1.9928
G1 X74.121 Y95.053 E2.0161
G1 X74.089 Y95.050 E2.0172
G1 X73.797 Y95.011 E2.0270
G1 X73.764 Y95.006 E2.0281
G1 X73.078 Y94.870 E2.0514
G1 X73.046 Y94.862 E2.0525
G1 X72.761 Y94.786 E2.0622
G1 X72.730 Y94.776 E2.0633
G1 X72.067 Y94.551 E2.0866
G1 X72.036 Y94.540 E2.0877
G1 X71.764 Y94.427 E2.0975
G1 X71.734 Y94.414 E2.0986
G1 X71.106 Y94.104 E2.1219
G1 X71.078 Y94.088 E2.1230
G1 X70.822 Y93.941 E2.1328
G1 X70.795 Y93.924 E2.1339
G1 X70.213 Y93.535 E2.1571
G1 X70.186 Y93.516 E2.1582
G1 X69.952 Y93.337 E2.1680
G1 X69.927 Y93.316 E2.1691
G1 X69.401 Y92.854 E2.1924
G1 X69.377 Y92.832 E2.1935
G1 X69.168 Y92.623 E2.2033
G1 X69.146 Y92.599 E2.2044
G1 X68.686 Y92.075 E2.2276
G1 X68.666 Y92.050 E2.2287
G1 X68.487 Y91.818 E2.2384
G1 X68.468 Y91.791 E2.2395
G1 X68.078 Y91.208 E2.2628
G1 X68.060 Y91.180 E2.2639
G1 X67.912 Y90.923 E2.2738
G1 X67.897 Y90.894 E2.2749
G1 X67.588 Y90.268 E2.2981
G1 X67.574 Y90.239 E2.2992
G1 X67.462 Y89.968 E2.3089
G1 X67.451 Y89.938 E2.3100
G1 X67.225 Y89.276 E2.3333
G1 X67.216 Y89.244 E2.3344
G1 X67.139 Y88.960 E2.3441
G1 X67.132 Y88.928 E2.3452
G1 X66.995 Y88.242 E2.3685
G1 X66.990 Y88.209 E2.3696
G1 X66.951 Y87.917 E2.3794
G1 X66.948 Y87.884 E2.3805
G1 X66.901 Y87.183 E2.4039
G1 X66.900 Y87.150 E2.4050
G1 X66.900 Y86.854 E2.4148
G1 X66.901 Y86.821 E2.4159
G1 X66.947 Y86.121 E2.4392
G1 X66.950 Y86.089 E2.4403
G1 X66.989 Y85.797 E2.4501
G1 X66.994 Y85.764 E2.4512
G1 X67.130 Y85.081 E2.4744
G1 X67.137 Y85.049 E2.4755
G1 X67.213 Y84.766 E2.4852
G1 X67.222 Y84.735 E2.4863
G1 X67.447 Y84.073 E2.5096
G1 X67.458 Y84.042 E2.5107
G1 X67.571 Y83.770 E2.5205
G1 X67.584 Y83.740 E2.5215
G1 X67.895 Y83.109 E2.5449
G1 X67.910 Y83.080 E2.5460
G1 X68.058 Y82.823 E2.5559
G1 X68.076 Y82.795 E2.5570
G1 X68.465 Y82.213 E2.5803
G1 X68.484 Y82.186 E2.5814
G1 X68.664 Y81.952 E2.5912
G1 X68.684 Y81.927 E2.5923
G1 X69.144 Y81.403 E2.6155
G1 X69.166 Y81.379 E2.6165
G1 X69.373 Y81.172 E2.6263
G1 X69.397 Y81.150 E2.6274
G1 X69.567 Y81.000 E2.6349
G1 X69.401 Y80.854 E2.6423
G1 X69.377 Y80.832 E2.6433
G1 X69.168 Y80.623 E2.6531
G1 X69.146 Y80.599 E2.6542
G1 X68.686 Y80.075 E2.6774
G1 X68.666 Y80.050 E2.6785
G1 X68.487 Y79.818 E2.6882
G1 X68.468 Y79.791 E2.6893
G1 X68.078 Y79.208 E2.7127
G1 X68.060 Y79.180 E2.7138
G1 X67.912 Y78.923 E2.7236
G1 X67.897 Y78.894 E2.7247
G1 X67.588 Y78.268 E2.7479
G1 X67.574 Y78.239 E2.7490
G1 X67.462 Y77.968 E2.7588
G1 X67.451 Y77.938 E2.7599
G1 X67.225 Y77.276 E2.7831
G1 X67.216 Y77.244 E2.7842
G1 X67.139 Y76.960 E2.7940
G1 X67.132 Y76.928 E2.7951
G1 X66.995 Y76.241 E2.8184
G1 X66.990 Y76.209 E2.8195
G1 X66.951 Y75.917 E2.8293
G1 X66.948 Y75.884 E2.8304
G1 X66.901 Y75.183 E2.8537
G1 X66.900 Y75.150 E2.8548
G1 X66.900 Y74.854 E2.8647
G1 X66.901 Y74.821 E2.8658
G1 X66.947 Y74.121 E2.8891
G1 X66.950 Y74.089 E2.8902
G1 X66.989 Y73.797 E2.9000
G1 X66.994 Y73.764 E2.9011
G1 X67.130 Y73.081 E2.9243
G1 X67.137 Y73.049 E2.9253
G1 X67.213 Y72.766 E2.9351
G1 X67.222 Y72.735 E2.9362
G1 X67.447 Y72.073 E2.9594
G1 X67.458 Y72.042 E2.9605
G1 X67.571 Y71.770 E2.9703
G1 X67.584 Y71.740 E2.9714
G1 X67.895 Y71.109 E2.9948
G1 X67.910 Y71.080 E2.9959
G1 X68.058 Y70.823 E3.0057
G1 X68.076 Y70.795 E3.0068
G1 X68.465 Y70.213 E3.0301
G1 X68.484 Y70.186 E3.0312
G1 X68.664 Y69.952 E3.0410
G1 X68.684 Y69.927 E3.0421
G1 X69.144 Y69.403 E3.0653
G1 X69.166 Y69.379 E3.0664
G1 X69.373 Y69.172 E3.0761
G1 X69.397 Y69.150 E3.0772
G1 X69.567 Y69.000 E3.0847
G1 X69.401 Y68.854 E3.0921
G1 X69.377 Y68.832 E3.0932
G1 X69.168 Y68.623 E3.1030
G1 X69.146 Y68.599 E3.1041
G1 X68.686 Y68.075 E3.1273
G1 X68.666 Y68.050 E3.1284
G1 X68.487 Y67.818 E3.1381
G1 X68.468 Y67.791 E3.1392
G1 X68.078 Y67.208 E3.1625
G1 X68.060 Y67.180 E3.1636
G1 X67.912 Y66.923 E3.1735
G1 X67.897 Y66.894 E3.1746
G1 X67.588 Y66.268 E3.1978
G1 X67.574 Y66.239 E3.1989
G1 X67.462 Y65.968 E3.2086
G1 X67.451 Y65.938 E3.2097
G1 X67.225 Y65.276 E3.2330
G1 X67.216 Y65.244 E3.2340
G1 X67.139 Y64.960 E3.2438
G1 X67.132 Y64.928 E3.2449
G1 X66.995 Y64.242 E3.2682
G1 X66.990 Y64.209 E3.2693
G1 X66.951 Y63.917 E3.2791
G1 X66.948 Y63.884 E3.2802
G1 X66.901 Y63.183 E3.3036
G1 X66.900 Y63.150 E3.3047
G1 X66.900 Y62.854 E3.3145
G1 X66.901 Y62.821 E3.3156
G1 X66.947 Y62.121 E3.3389
G1 X66.950 Y62.089 E3.3400
G1 X66.989 Y61.797 E3.3498
G1 X66.994 Y61.764 E3.3509
G1 X67.130 Y61.081 E3.3741
G1 X67.137 Y61.049 E3.3752
G1 X67.213 Y60.766 E3.3849
G1 X67.222 Y60.735 E3.3860
