; G-Code generated by Simplify3D(R) Version 3.0.1
; Aug 25, 2015 at 12:21:21 PM
; Settings Summary
;   processName,Process1
;   applyToModels,tabChamfer
;   profileName,PrinterBot Simple Metal Custom
;   profileVersion,2015-05-01 08:00:00
;   baseProfile,Default (modified)
;   printMaterial,PLA
;   printQuality,Medium
;   printExtruders,
;   extruderName,Primary Extruder
;   extruderToolheadNumber,0
;   extruderDiameter,0.4
;   extruderAutoWidth,0
;   extruderWidth,0.4
;   extrusionMultiplier,1
;   extruderUseRetract,1
;   extruderRetractionDistance,1
;   extruderExtraRestartDistance,0
;   extruderRetractionZLift,0
;   extruderRetractionSpeed,1800
;   extruderUseCoasting,0
;   extruderCoastingDistance,0.2
;   extruderUseWipe,0
;   extruderWipeDistance,5
;   primaryExtruder,0
;   layerHeight,0.2
;   topSolidLayers,3
;   bottomSolidLayers,3
;   perimeterOutlines,2
;   printPerimetersInsideOut,1
;   startPointOption,2
;   startPointOriginX,0
;   startPointOriginY,0
;   startPointOriginZ,300
;   sequentialIslands,0
;   spiralVaseMode,0
;   firstLayerHeightPercentage,90
;   firstLayerWidthPercentage,100
;   firstLayerUnderspeed,0.5
;   useRaft,0
;   raftExtruder,0
;   raftLayers,3
;   raftOffset,3
;   raftSeparationDistance,0.14
;   raftInfill,85
;   disableRaftBaseLayers,0
;   useSkirt,1
;   skirtExtruder,0
;   skirtLayers,1
;   skirtOutlines,5
;   skirtOffset,4
;   usePrimePillar,0
;   primePillarExtruder,999
;   primePillarWidth,12
;   primePillarLocation,7
;   primePillarSpeedMultiplier,1
;   useOozeShield,0
;   oozeShieldExtruder,999
;   oozeShieldOffset,2
;   oozeShieldOutlines,1
;   oozeShieldSidewallShape,1
;   oozeShieldSidewallAngle,30
;   oozeShieldSpeedMultiplier,1
;   infillExtruder,0
;   internalInfillPattern,Rectilinear
;   externalInfillPattern,Rectilinear
;   infillPercentage,20
;   outlineOverlapPercentage,15
;   infillExtrusionWidthPercentage,100
;   minInfillLength,5
;   infillLayerInterval,1
;   infillAngles,45,-45
;   overlapInfillAngles,0
;   generateSupport,0
;   supportExtruder,0
;   supportInfillPercentage,30
;   supportExtraInflation,0
;   denseSupportLayers,0
;   denseSupportInfillPercentage,70
;   supportLayerInterval,1
;   supportHorizontalPartOffset,0.3
;   supportUpperSeparationLayers,1
;   supportLowerSeparationLayers,1
;   supportType,0
;   supportGridSpacing,4
;   maxOverhangAngle,45
;   supportAngles,0
;   temperatureName,Primary Extruder,Heated Bed
;   temperatureNumber,0,1
;   temperatureSetpointCount,1,3
;   temperatureSetpointLayers,1,1,2,3
;   temperatureSetpointTemperatures,200,70,65,60
;   temperatureStabilizeAtStartup,1,1
;   temperatureHeatedBed,0,1
;   temperatureRelayBetweenLayers,0,0
;   temperatureRelayBetweenLoops,0,0
;   fanLayers,1,2
;   fanSpeeds,0,100
;   blipFanToFullPower,1
;   adjustSpeedForCooling,1
;   minSpeedLayerTime,15
;   minCoolingSpeedSlowdown,20
;   increaseFanForCooling,0
;   minFanLayerTime,45
;   maxCoolingFanSpeed,100
;   increaseFanForBridging,0
;   bridgingFanSpeed,100
;   use5D,1
;   relativeEdistances,0
;   allowEaxisZeroing,1
;   independentExtruderAxes,0
;   includeM10123,0
;   stickySupport,1
;   applyToolheadOffsets,0
;   gcodeXoffset,0
;   gcodeYoffset,0
;   gcodeZoffset,0
;   overrideMachineDefinition,1
;   machineTypeOverride,0
;   strokeXoverride,150
;   strokeYoverride,150
;   strokeZoverride,150
;   originOffsetXoverride,0
;   originOffsetYoverride,0
;   originOffsetZoverride,0
;   homeXdirOverride,-1
;   homeYdirOverride,-1
;   homeZdirOverride,-1
;   flipXoverride,1
;   flipYoverride,-1
;   flipZoverride,1
;   toolheadOffsets,0,0|0,0|0,0|0,0|0,0|0,0
;   overrideFirmwareConfiguration,1
;   firmwareTypeOverride,RepRap (Marlin/Repetier/Sprinter)
;   GPXconfigOverride,r2
;   baudRateOverride,250000
;   overridePrinterModels,1
;   printerModelsOverride
;   startingGcode,G28 X0 Y0 ; home X and Y axes, G29 ; probe Z
;   layerChangeGcode,
;   retractionGcode,
;   toolChangeGcode,
;   endingGcode,M104 S0 T0 ; turn off extruder,M140 S0 T1 ; turn off bed,G28 X0 ; home X axis,M84 ; disable motors
;   createX3G,0
;   celebration,0
;   celebrationSong,Random Song
;   createMB5G,0
;   postProcessing,
;   defaultSpeed,2700
;   outlineUnderspeed,0.8
;   solidInfillUnderspeed,0.8
;   supportUnderspeed,0.8
;   rapidXYspeed,4200
;   rapidZspeed,1002
;   minBridgingArea,50
;   bridgingExtraInflation,0
;   bridgingExtrusionMultiplier,1
;   bridgingSpeedMultiplier,1
;   filamentDiameter,1.75
;   filamentPricePerKg,46
;   filamentDensity,1.25
;   useMinPrintHeight,0
;   minPrintHeight,0
;   useMaxPrintHeight,0
;   maxPrintHeight,0
;   useDiaphragm,0
;   diaphragmLayerInterval,20
;   robustSlicing,1
;   mergeAllIntoSolid,0
;   onlyRetractWhenCrossingOutline,1
;   retractBetweenLayers,1
;   useRetractionMinTravel,0
;   retractionMinTravel,3
;   retractWhileWiping,0
;   onlyWipeOutlines,1
;   avoidCrossingOutline,0
;   maxMovementDetourFactor,3
;   toolChangeRetractionDistance,12
;   toolChangeExtraRestartDistance,-0.5
;   toolChangeRetractionSpeed,600
;   allowThinWallGapFill,1
;   thinWallAllowedOverlapPercentage,10
;   horizontalSizeCompensation,0
G90
M82
M106 S0
M140 S70
M190 S70
M104 S200 T0
M109 S200 T0
G28 X0 Y0 ; home X and Y axes
 G29 ; probe Z
G92 E0
G1 E-1.0000 F1800
G1 Z0.180 F1002
; layer 1, Z = 0.18
T0
; tool H0.200 W0.400
; skirt
G1 X64.861 Y68.237 F4200
G1 E0.0000 F540
G92 E0
G1 X64.904 Y68.197 E0.0020 F649
G1 X65.499 Y67.675 E0.0283
G1 X65.545 Y67.637 E0.0303
G1 X65.799 Y67.442 E0.0409
G1 X65.847 Y67.408 E0.0429
G1 X66.506 Y66.968 E0.0692
G1 X66.556 Y66.937 E0.0712
G1 X66.834 Y66.776 E0.0819
G1 X66.886 Y66.748 E0.0838
G1 X67.596 Y66.398 E0.1102
G1 X67.650 Y66.374 E0.1121
G1 X67.946 Y66.251 E0.1228
G1 X68.001 Y66.230 E0.1248
G1 X68.751 Y65.976 E0.1511
G1 X68.808 Y65.958 E0.1531
G1 X69.118 Y65.875 E0.1637
G1 X69.175 Y65.862 E0.1657
G1 X69.952 Y65.708 E0.1921
G1 X70.010 Y65.698 E0.1940
G1 X70.328 Y65.656 E0.2047
G1 X70.387 Y65.650 E0.2066
G1 X71.177 Y65.598 E0.2330
G1 X71.236 Y65.597 E0.2349
G1 X71.557 Y65.597 E0.2456
G1 X71.616 Y65.598 E0.2476
G1 X72.406 Y65.650 E0.2739
G1 X72.465 Y65.656 E0.2759
G1 X72.783 Y65.698 E0.2866
G1 X72.841 Y65.708 E0.2885
G1 X73.636 Y65.866 E0.3155
G1 X73.699 Y65.881 E0.3176
G1 X74.043 Y65.975 E0.3295
G1 X74.106 Y65.995 E0.3317
G1 X74.857 Y66.263 E0.3582
G1 X75.000 Y66.301 E0.3631
G1 X75.000 Y66.301 E0.3631
G1 X75.000 Y66.301 E0.3631
G1 X75.958 Y65.976 E0.3968
G1 X76.015 Y65.958 E0.3987
G1 X76.325 Y65.875 E0.4094
G1 X76.382 Y65.862 E0.4114
G1 X77.159 Y65.708 E0.4377
G1 X77.217 Y65.698 E0.4397
G1 X77.535 Y65.656 E0.4503
G1 X77.594 Y65.650 E0.4523
G1 X78.384 Y65.598 E0.4787
G1 X78.443 Y65.597 E0.4806
G1 X78.764 Y65.597 E0.4913
G1 X78.823 Y65.598 E0.4932
G1 X79.613 Y65.650 E0.5196
G1 X79.672 Y65.656 E0.5216
G1 X79.990 Y65.698 E0.5322
G1 X80.048 Y65.708 E0.5342
G1 X80.825 Y65.862 E0.5605
G1 X80.882 Y65.875 E0.5625
G1 X81.192 Y65.958 E0.5732
G1 X81.249 Y65.976 E0.5751
G1 X81.999 Y66.230 E0.6015
G1 X82.054 Y66.251 E0.6034
G1 X82.350 Y66.374 E0.6141
G1 X82.404 Y66.398 E0.6161
G1 X83.114 Y66.748 E0.6424
G1 X83.166 Y66.776 E0.6444
G1 X83.444 Y66.937 E0.6550
G1 X83.494 Y66.968 E0.6570
G1 X84.153 Y67.408 E0.6833
G1 X84.201 Y67.442 E0.6853
G1 X84.455 Y67.637 E0.6960
G1 X84.501 Y67.675 E0.6979
G1 X85.096 Y68.197 E0.7243
G1 X85.139 Y68.237 E0.7262
G1 X85.366 Y68.464 E0.7369
G1 X85.406 Y68.507 E0.7389
G1 X85.929 Y69.103 E0.7652
G1 X85.966 Y69.148 E0.7672
G1 X86.161 Y69.403 E0.7778
G1 X86.196 Y69.451 E0.7798
G1 X86.636 Y70.109 E0.8061
G1 X86.667 Y70.159 E0.8081
G1 X86.827 Y70.437 E0.8188
G1 X86.855 Y70.489 E0.8207
G1 X87.205 Y71.200 E0.8471
G1 X87.230 Y71.253 E0.8490
G1 X87.352 Y71.550 E0.8597
G1 X87.373 Y71.605 E0.8617
G1 X87.628 Y72.355 E0.8880
G1 X87.645 Y72.411 E0.8900
G1 X87.728 Y72.721 E0.9006
G1 X87.741 Y72.778 E0.9026
G1 X87.896 Y73.555 E0.9290
G1 X87.905 Y73.614 E0.9309
G1 X87.947 Y73.932 E0.9416
G1 X87.953 Y73.990 E0.9435
G1 X88.005 Y74.781 E0.9699
G1 X88.007 Y74.840 E0.9718
G1 X88.007 Y75.160 E0.9825
G1 X88.005 Y75.219 E0.9845
G1 X87.953 Y76.010 E1.0108
G1 X87.947 Y76.068 E1.0128
G1 X87.905 Y76.386 E1.0235
G1 X87.896 Y76.445 E1.0254
G1 X87.741 Y77.222 E1.0518
G1 X87.728 Y77.279 E1.0537
G1 X87.645 Y77.589 E1.0644
G1 X87.628 Y77.645 E1.0663
G1 X87.373 Y78.395 E1.0927
G1 X87.352 Y78.450 E1.0947
G1 X87.230 Y78.747 E1.1053
G1 X87.205 Y78.800 E1.1073
G1 X86.855 Y79.511 E1.1336
G1 X86.827 Y79.563 E1.1356
G1 X86.667 Y79.841 E1.1463
G1 X86.636 Y79.891 E1.1482
G1 X86.196 Y80.549 E1.1746
G1 X86.161 Y80.597 E1.1765
G1 X85.966 Y80.852 E1.1872
G1 X85.929 Y80.897 E1.1892
G1 X85.406 Y81.493 E1.2155
G1 X85.366 Y81.536 E1.2175
G1 X85.139 Y81.763 E1.2281
G1 X85.096 Y81.803 E1.2301
G1 X84.501 Y82.325 E1.2564
G1 X84.455 Y82.363 E1.2584
G1 X84.201 Y82.558 E1.2691
G1 X84.153 Y82.592 E1.2710
G1 X83.494 Y83.032 E1.2974
G1 X83.444 Y83.063 E1.2993
G1 X83.166 Y83.224 E1.3100
G1 X83.114 Y83.252 E1.3120
G1 X82.404 Y83.602 E1.3383
G1 X82.350 Y83.626 E1.3403
G1 X82.054 Y83.749 E1.3509
G1 X81.999 Y83.770 E1.3529
G1 X81.248 Y84.024 E1.3792
G1 X81.192 Y84.042 E1.3812
G1 X80.882 Y84.125 E1.3919
G1 X80.825 Y84.138 E1.3938
G1 X80.048 Y84.292 E1.4202
G1 X79.990 Y84.302 E1.4221
G1 X79.672 Y84.344 E1.4328
G1 X79.613 Y84.350 E1.4348
G1 X78.823 Y84.401 E1.4611
G1 X78.764 Y84.403 E1.4631
G1 X78.443 Y84.403 E1.4737
G1 X78.384 Y84.401 E1.4757
G1 X77.594 Y84.350 E1.5021
G1 X77.535 Y84.344 E1.5040
G1 X77.217 Y84.302 E1.5147
G1 X77.159 Y84.292 E1.5166
G1 X76.364 Y84.134 E1.5436
G1 X76.301 Y84.119 E1.5458
G1 X75.957 Y84.024 E1.5576
G1 X75.894 Y84.005 E1.5598
G1 X75.143 Y83.737 E1.5863
G1 X75.000 Y83.699 E1.5912
G1 X75.000 Y83.699 E1.5913
G1 X75.000 Y83.699 E1.5913
G1 X75.000 Y83.699 E1.5913
G1 X74.042 Y84.024 E1.6249
G1 X73.985 Y84.041 E1.6269
G1 X73.675 Y84.124 E1.6375
G1 X73.618 Y84.138 E1.6395
G1 X72.841 Y84.292 E1.6658
G1 X72.783 Y84.302 E1.6678
G1 X72.465 Y84.344 E1.6785
G1 X72.406 Y84.350 E1.6804
G1 X71.616 Y84.401 E1.7068
G1 X71.557 Y84.403 E1.7087
G1 X71.236 Y84.403 E1.7194
G1 X71.177 Y84.401 E1.7214
G1 X70.387 Y84.350 E1.7477
G1 X70.328 Y84.344 E1.7497
G1 X70.010 Y84.302 E1.7604
G1 X69.952 Y84.292 E1.7623
G1 X69.175 Y84.138 E1.7887
G1 X69.118 Y84.125 E1.7906
G1 X68.808 Y84.041 E1.8013
G1 X68.752 Y84.024 E1.8032
G1 X68.001 Y83.770 E1.8296
G1 X67.946 Y83.749 E1.8315
G1 X67.650 Y83.626 E1.8422
G1 X67.596 Y83.602 E1.8442
G1 X66.886 Y83.252 E1.8705
G1 X66.834 Y83.224 E1.8725
G1 X66.556 Y83.063 E1.8832
G1 X66.506 Y83.032 E1.8851
G1 X65.847 Y82.592 E1.9115
G1 X65.799 Y82.558 E1.9134
G1 X65.545 Y82.363 E1.9241
G1 X65.499 Y82.325 E1.9261
G1 X64.904 Y81.803 E1.9524
G1 X64.861 Y81.763 E1.9544
G1 X64.634 Y81.536 E1.9650
G1 X64.594 Y81.493 E1.9670
G1 X64.071 Y80.897 E1.9933
G1 X64.034 Y80.852 E1.9953
G1 X63.839 Y80.597 E2.0060
G1 X63.804 Y80.549 E2.0079
G1 X63.364 Y79.891 E2.0343
G1 X63.333 Y79.841 E2.0362
G1 X63.173 Y79.563 E2.0469
G1 X63.145 Y79.511 E2.0489
G1 X62.795 Y78.800 E2.0752
G1 X62.770 Y78.747 E2.0772
G1 X62.648 Y78.450 E2.0878
G1 X62.627 Y78.395 E2.0898
G1 X62.372 Y77.645 E2.1161
G1 X62.355 Y77.589 E2.1181
G1 X62.272 Y77.279 E2.1288
G1 X62.259 Y77.222 E2.1307
G1 X62.104 Y76.445 E2.1571
G1 X62.095 Y76.386 E2.1590
G1 X62.053 Y76.068 E2.1697
G1 X62.047 Y76.010 E2.1717
G1 X61.995 Y75.219 E2.1980
G1 X61.993 Y75.160 E2.2000
G1 X61.993 Y74.840 E2.2106
G1 X61.995 Y74.781 E2.2126
G1 X62.047 Y73.990 E2.2389
G1 X62.053 Y73.932 E2.2409
G1 X62.094 Y73.614 E2.2516
G1 X62.104 Y73.555 E2.2535
G1 X62.259 Y72.778 E2.2799
G1 X62.272 Y72.721 E2.2818
G1 X62.355 Y72.411 E2.2925
G1 X62.372 Y72.355 E2.2945
G1 X62.627 Y71.605 E2.3208
G1 X62.648 Y71.550 E2.3228
G1 X62.770 Y71.253 E2.3335
G1 X62.795 Y71.200 E2.3354
G1 X63.145 Y70.489 E2.3618
G1 X63.173 Y70.437 E2.3637
G1 X63.333 Y70.159 E2.3744
G1 X63.364 Y70.109 E2.3763
G1 X63.804 Y69.451 E2.4027
G1 X63.839 Y69.403 E2.4047
G1 X64.034 Y69.148 E2.4153
G1 X64.071 Y69.103 E2.4173
G1 X64.594 Y68.507 E2.4436
G1 X64.634 Y68.464 E2.4456
G1 X64.861 Y68.237 E2.4563
G1 X65.172 Y68.494 F4200
G92 E0
G1 X65.758 Y67.980 E0.0259 F649
G1 X65.793 Y67.951 E0.0274
G1 X66.038 Y67.763 E0.0377
G1 X66.075 Y67.737 E0.0392
G1 X66.723 Y67.304 E0.0651
G1 X66.762 Y67.280 E0.0666
G1 X67.028 Y67.126 E0.0769
G1 X67.069 Y67.104 E0.0784
G1 X67.767 Y66.760 E0.1043
G1 X67.809 Y66.741 E0.1058
G1 X68.093 Y66.623 E0.1161
G1 X68.136 Y66.607 E0.1176
G1 X68.874 Y66.356 E0.1435
G1 X68.918 Y66.343 E0.1450
G1 X69.215 Y66.263 E0.1553
G1 X69.260 Y66.253 E0.1568
G1 X70.024 Y66.101 E0.1827
G1 X70.069 Y66.094 E0.1842
G1 X70.374 Y66.054 E0.1944
G1 X70.419 Y66.049 E0.1960
G1 X71.197 Y65.998 E0.2219
G1 X71.243 Y65.997 E0.2234
G1 X71.550 Y65.997 E0.2336
G1 X71.596 Y65.998 E0.2352
G1 X72.374 Y66.049 E0.2611
G1 X72.419 Y66.054 E0.2626
G1 X72.724 Y66.094 E0.2728
G1 X72.769 Y66.101 E0.2744
G1 X73.550 Y66.256 E0.3008
G1 X73.600 Y66.268 E0.3025
G1 X73.930 Y66.359 E0.3139
G1 X73.978 Y66.374 E0.3156
G1 X74.738 Y66.645 E0.3424
G1 X74.922 Y66.694 E0.3488
G1 X74.974 Y66.701 E0.3505
G1 X75.026 Y66.701 E0.3522
G1 X75.091 Y66.692 E0.3544
G1 X76.081 Y66.356 E0.3892
G1 X76.125 Y66.343 E0.3907
G1 X76.422 Y66.264 E0.4009
G1 X76.466 Y66.253 E0.4025
G1 X77.231 Y66.101 E0.4284
G1 X77.276 Y66.094 E0.4299
G1 X77.581 Y66.054 E0.4401
G1 X77.626 Y66.049 E0.4417
G1 X78.404 Y65.998 E0.4676
G1 X78.450 Y65.997 E0.4691
G1 X78.757 Y65.997 E0.4793
G1 X78.803 Y65.998 E0.4809
G1 X79.581 Y66.049 E0.5068
G1 X79.626 Y66.054 E0.5083
G1 X79.931 Y66.094 E0.5185
G1 X79.976 Y66.101 E0.5200
G1 X80.740 Y66.253 E0.5460
G1 X80.785 Y66.264 E0.5475
G1 X81.082 Y66.343 E0.5577
G1 X81.126 Y66.356 E0.5592
G1 X81.864 Y66.607 E0.5852
G1 X81.907 Y66.623 E0.5867
G1 X82.191 Y66.741 E0.5969
G1 X82.233 Y66.760 E0.5984
G1 X82.931 Y67.104 E0.6243
G1 X82.972 Y67.126 E0.6259
G1 X83.238 Y67.280 E0.6361
G1 X83.277 Y67.304 E0.6376
G1 X83.925 Y67.737 E0.6635
G1 X83.962 Y67.763 E0.6651
G1 X84.206 Y67.951 E0.6753
G1 X84.242 Y67.980 E0.6768
G1 X84.828 Y68.494 E0.7027
G1 X84.861 Y68.525 E0.7043
G1 X85.079 Y68.742 E0.7145
G1 X85.110 Y68.776 E0.7160
G1 X85.624 Y69.362 E0.7419
G1 X85.653 Y69.397 E0.7435
G1 X85.840 Y69.641 E0.7537
G1 X85.867 Y69.678 E0.7552
G1 X86.300 Y70.326 E0.7811
G1 X86.324 Y70.365 E0.7826
G1 X86.478 Y70.631 E0.7929
G1 X86.499 Y70.672 E0.7944
G1 X86.844 Y71.371 E0.8203
G1 X86.863 Y71.412 E0.8218
G1 X86.980 Y71.697 E0.8321
G1 X86.997 Y71.740 E0.8336
G1 X87.247 Y72.477 E0.8595
G1 X87.260 Y72.521 E0.8610
G1 X87.340 Y72.818 E0.8713
G1 X87.350 Y72.863 E0.8728
G1 X87.502 Y73.627 E0.8987
G1 X87.510 Y73.672 E0.9002
G1 X87.550 Y73.977 E0.9105
G1 X87.554 Y74.023 E0.9120
G1 X87.605 Y74.800 E0.9379
G1 X87.607 Y74.846 E0.9394
G1 X87.607 Y75.154 E0.9497
G1 X87.605 Y75.200 E0.9512
G1 X87.554 Y75.977 E0.9771
G1 X87.550 Y76.023 E0.9786
G1 X87.510 Y76.328 E0.9889
G1 X87.502 Y76.373 E0.9904
G1 X87.350 Y77.137 E1.0163
G1 X87.340 Y77.182 E1.0178
G1 X87.260 Y77.479 E1.0280
G1 X87.247 Y77.523 E1.0296
G1 X86.997 Y78.260 E1.0555
G1 X86.980 Y78.303 E1.0570
G1 X86.863 Y78.588 E1.0672
G1 X86.844 Y78.629 E1.0688
G1 X86.499 Y79.328 E1.0947
G1 X86.478 Y79.369 E1.0962
G1 X86.324 Y79.635 E1.1064
G1 X86.299 Y79.674 E1.1080
G1 X85.867 Y80.322 E1.1339
G1 X85.840 Y80.359 E1.1354
G1 X85.653 Y80.603 E1.1456
G1 X85.624 Y80.638 E1.1472
G1 X85.110 Y81.224 E1.1731
G1 X85.079 Y81.258 E1.1746
G1 X84.861 Y81.475 E1.1848
G1 X84.828 Y81.506 E1.1863
G1 X84.242 Y82.020 E1.2123
G1 X84.206 Y82.049 E1.2138
G1 X83.962 Y82.237 E1.2240
G1 X83.925 Y82.263 E1.2255
G1 X83.277 Y82.696 E1.2515
G1 X83.238 Y82.720 E1.2530
G1 X82.972 Y82.874 E1.2632
G1 X82.931 Y82.896 E1.2647
G1 X82.233 Y83.240 E1.2906
