; G-Code generated by Simplify3D(R) Version 3.0.1
; Aug 25, 2015 at 1:39:56 PM
; Settings Summary
;   processName,Process1
;   applyToModels,tabChamfer,tabChamfer(2),tabChamfer(3),tabChamfer(4),tabChamfer(5),tabChamfer(6),tabChamfer(7),tabChamfer(8),tabChamfer(9),tabChamfer(10),tabChamfer(11),tabChamfer(12),tabChamfer(13),tabChamfer(14),tabChamfer(15),tabChamfer(16),tabChamfer(17),tabChamfer(18),tabChamfer(19),tabChamfer(20),tabChamfer(21),tabChamfer(22),tabChamfer(23),tabChamfer(24),tabChamfer(25),tabChamfer(16)(2),tabChamfer(16)(3),tabChamfer(16)(4)
;   profileName,PrinterBot Simple Metal Custom
;   profileVersion,2015-05-01 08:00:00
;   baseProfile,Default (modified)
;   printMaterial,PLA
;   printQuality,Medium
;   printExtruders,
;   extruderName,Primary Extruder
;   extruderToolheadNumber,0
;   extruderDiameter,0.4
;   extruderAutoWidth,0
;   extruderWidth,0.4
;   extrusionMultiplier,1
;   extruderUseRetract,1
;   extruderRetractionDistance,1
;   extruderExtraRestartDistance,0
;   extruderRetractionZLift,0
;   extruderRetractionSpeed,1800
;   extruderUseCoasting,0
;   extruderCoastingDistance,0.2
;   extruderUseWipe,0
;   extruderWipeDistance,5
;   primaryExtruder,0
;   layerHeight,0.2
;   topSolidLayers,3
;   bottomSolidLayers,3
;   perimeterOutlines,2
;   printPerimetersInsideOut,1
;   startPointOption,2
;   startPointOriginX,0
;   startPointOriginY,0
;   startPointOriginZ,300
;   sequentialIslands,0
;   spiralVaseMode,0
;   firstLayerHeightPercentage,90
;   firstLayerWidthPercentage,100
;   firstLayerUnderspeed,0.5
;   useRaft,0
;   raftExtruder,0
;   raftLayers,3
;   raftOffset,3
;   raftSeparationDistance,0.14
;   raftInfill,85
;   disableRaftBaseLayers,0
;   useSkirt,1
;   skirtExtruder,0
;   skirtLayers,1
;   skirtOutlines,5
;   skirtOffset,4
;   usePrimePillar,0
;   primePillarExtruder,999
;   primePillarWidth,12
;   primePillarLocation,7
;   primePillarSpeedMultiplier,1
;   useOozeShield,0
;   oozeShieldExtruder,999
;   oozeShieldOffset,2
;   oozeShieldOutlines,1
;   oozeShieldSidewallShape,1
;   oozeShieldSidewallAngle,30
;   oozeShieldSpeedMultiplier,1
;   infillExtruder,0
;   internalInfillPattern,Rectilinear
;   externalInfillPattern,Rectilinear
;   infillPercentage,20
;   outlineOverlapPercentage,15
;   infillExtrusionWidthPercentage,100
;   minInfillLength,5
;   infillLayerInterval,1
;   infillAngles,45,-45
;   overlapInfillAngles,0
;   generateSupport,0
;   supportExtruder,0
;   supportInfillPercentage,30
;   supportExtraInflation,0
;   denseSupportLayers,0
;   denseSupportInfillPercentage,70
;   supportLayerInterval,1
;   supportHorizontalPartOffset,0.3
;   supportUpperSeparationLayers,1
;   supportLowerSeparationLayers,1
;   supportType,0
;   supportGridSpacing,4
;   maxOverhangAngle,45
;   supportAngles,0
;   temperatureName,Primary Extruder,Heated Bed
;   temperatureNumber,0,1
;   temperatureSetpointCount,2,3
;   temperatureSetpointLayers,1,2,1,2,3
;   temperatureSetpointTemperatures,205,195,70,65,60
;   temperatureStabilizeAtStartup,1,1
;   temperatureHeatedBed,0,1
;   temperatureRelayBetweenLayers,0,0
;   temperatureRelayBetweenLoops,0,0
;   fanLayers,1,2
;   fanSpeeds,0,100
;   blipFanToFullPower,1
;   adjustSpeedForCooling,1
;   minSpeedLayerTime,15
;   minCoolingSpeedSlowdown,20
;   increaseFanForCooling,0
;   minFanLayerTime,45
;   maxCoolingFanSpeed,100
;   increaseFanForBridging,0
;   bridgingFanSpeed,100
;   use5D,1
;   relativeEdistances,0
;   allowEaxisZeroing,1
;   independentExtruderAxes,0
;   includeM10123,0
;   stickySupport,1
;   applyToolheadOffsets,0
;   gcodeXoffset,0
;   gcodeYoffset,0
;   gcodeZoffset,0
;   overrideMachineDefinition,1
;   machineTypeOverride,0
;   strokeXoverride,150
;   strokeYoverride,150
;   strokeZoverride,150
;   originOffsetXoverride,0
;   originOffsetYoverride,0
;   originOffsetZoverride,0
;   homeXdirOverride,-1
;   homeYdirOverride,-1
;   homeZdirOverride,-1
;   flipXoverride,1
;   flipYoverride,-1
;   flipZoverride,1
;   toolheadOffsets,0,0|0,0|0,0|0,0|0,0|0,0
;   overrideFirmwareConfiguration,1
;   firmwareTypeOverride,RepRap (Marlin/Repetier/Sprinter)
;   GPXconfigOverride,r2
;   baudRateOverride,250000
;   overridePrinterModels,1
;   printerModelsOverride
;   startingGcode,G28 X0 Y0 ; home X and Y axes, G29 ; probe Z
;   layerChangeGcode,
;   retractionGcode,
;   toolChangeGcode,
;   endingGcode,M104 S0 T0 ; turn off extruder,M140 S0 T1 ; turn off bed,G28 X0 ; home X axis,M84 ; disable motors
;   createX3G,0
;   celebration,0
;   celebrationSong,Random Song
;   createMB5G,0
;   postProcessing,
;   defaultSpeed,2700
;   outlineUnderspeed,0.8
;   solidInfillUnderspeed,0.8
;   supportUnderspeed,0.8
;   rapidXYspeed,4200
;   rapidZspeed,1002
;   minBridgingArea,50
;   bridgingExtraInflation,0
;   bridgingExtrusionMultiplier,1
;   bridgingSpeedMultiplier,1
;   filamentDiameter,1.75
;   filamentPricePerKg,46
;   filamentDensity,1.25
;   useMinPrintHeight,0
;   minPrintHeight,0
;   useMaxPrintHeight,0
;   maxPrintHeight,0
;   useDiaphragm,0
;   diaphragmLayerInterval,20
;   robustSlicing,1
;   mergeAllIntoSolid,0
;   onlyRetractWhenCrossingOutline,1
;   retractBetweenLayers,1
;   useRetractionMinTravel,0
;   retractionMinTravel,3
;   retractWhileWiping,0
;   onlyWipeOutlines,1
;   avoidCrossingOutline,0
;   maxMovementDetourFactor,3
;   toolChangeRetractionDistance,12
;   toolChangeExtraRestartDistance,-0.5
;   toolChangeRetractionSpeed,600
;   allowThinWallGapFill,1
;   thinWallAllowedOverlapPercentage,10
;   horizontalSizeCompensation,0
G90
M82
M106 S0
M140 S70
M190 S70
M104 S205 T0
M109 S205 T0
G28 X0 Y0 ; home X and Y axes
 G29 ; probe Z
G92 E0
G1 E-1.0000 F1800
G1 Z0.180 F1002
; layer 1, Z = 0.18
T0
; tool H0.200 W0.400
; skirt
G1 X27.862 Y30.355 F4200
G1 E0.0000 F540
G92 E0
G1 X28.139 Y30.194 E0.0107 F1350
G1 X28.191 Y30.166 E0.0126
G1 X28.902 Y29.816 E0.0390
G1 X28.956 Y29.792 E0.0409
G1 X29.252 Y29.669 E0.0516
G1 X29.307 Y29.648 E0.0536
G1 X30.057 Y29.394 E0.0799
G1 X30.114 Y29.376 E0.0819
G1 X30.423 Y29.293 E0.0925
G1 X30.481 Y29.280 E0.0945
G1 X31.258 Y29.125 E0.1208
G1 X31.316 Y29.116 E0.1228
G1 X31.634 Y29.074 E0.1335
G1 X31.693 Y29.068 E0.1354
G1 X32.483 Y29.016 E0.1618
G1 X32.542 Y29.015 E0.1637
G1 X32.863 Y29.015 E0.1744
G1 X32.922 Y29.016 E0.1764
G1 X33.712 Y29.068 E0.2027
G1 X33.771 Y29.074 E0.2047
G1 X34.089 Y29.116 E0.2154
G1 X34.147 Y29.125 E0.2173
G1 X34.941 Y29.284 E0.2443
G1 X35.005 Y29.299 E0.2464
G1 X35.349 Y29.393 E0.2583
G1 X35.411 Y29.413 E0.2605
G1 X36.163 Y29.681 E0.2870
G1 X36.306 Y29.719 E0.2919
G1 X36.306 Y29.719 E0.2919
G1 X37.264 Y29.394 E0.3256
G1 X37.320 Y29.376 E0.3275
G1 X37.630 Y29.293 E0.3382
G1 X37.688 Y29.280 E0.3402
G1 X38.465 Y29.125 E0.3665
G1 X38.523 Y29.116 E0.3685
G1 X38.841 Y29.074 E0.3791
G1 X38.899 Y29.068 E0.3811
G1 X39.690 Y29.016 E0.4075
G1 X39.749 Y29.015 E0.4094
G1 X40.070 Y29.015 E0.4201
G1 X40.128 Y29.016 E0.4220
G1 X40.919 Y29.068 E0.4484
G1 X40.978 Y29.074 E0.4503
G1 X41.296 Y29.116 E0.4610
G1 X41.354 Y29.125 E0.4630
G1 X42.131 Y29.280 E0.4893
G1 X42.188 Y29.293 E0.4913
G1 X42.498 Y29.376 E0.5020
G1 X42.554 Y29.394 E0.5039
G1 X43.304 Y29.648 E0.5303
G1 X43.359 Y29.669 E0.5322
G1 X43.656 Y29.792 E0.5429
G1 X43.710 Y29.816 E0.5448
G1 X44.420 Y30.166 E0.5712
G1 X44.472 Y30.194 E0.5732
G1 X44.750 Y30.355 E0.5838
G1 X44.800 Y30.386 E0.5858
G1 X45.459 Y30.826 E0.6121
G1 X45.506 Y30.860 E0.6141
G1 X45.761 Y31.055 E0.6248
G1 X45.806 Y31.093 E0.6267
G1 X45.924 Y31.196 E0.6319
G1 X46.086 Y31.054 E0.6391
G1 X46.131 Y31.017 E0.6410
G1 X46.386 Y30.822 E0.6517
G1 X46.433 Y30.787 E0.6537
G1 X47.092 Y30.347 E0.6800
G1 X47.142 Y30.316 E0.6820
G1 X47.420 Y30.156 E0.6926
G1 X47.472 Y30.128 E0.6946
G1 X48.183 Y29.777 E0.7209
G1 X48.236 Y29.753 E0.7229
G1 X48.532 Y29.630 E0.7336
G1 X48.588 Y29.610 E0.7355
G1 X49.338 Y29.355 E0.7619
G1 X49.394 Y29.338 E0.7638
G1 X49.704 Y29.255 E0.7745
G1 X49.761 Y29.241 E0.7765
G1 X50.538 Y29.087 E0.8028
G1 X50.596 Y29.077 E0.8048
G1 X50.914 Y29.035 E0.8154
G1 X50.973 Y29.030 E0.8174
G1 X51.764 Y28.978 E0.8438
G1 X51.822 Y28.976 E0.8457
G1 X52.143 Y28.976 E0.8564
G1 X52.202 Y28.978 E0.8583
G1 X52.993 Y29.030 E0.8847
G1 X53.051 Y29.035 E0.8866
G1 X53.369 Y29.077 E0.8973
G1 X53.427 Y29.087 E0.8993
G1 X54.222 Y29.245 E0.9262
G1 X54.286 Y29.260 E0.9284
G1 X54.629 Y29.355 E0.9403
G1 X54.692 Y29.375 E0.9424
G1 X55.443 Y29.642 E0.9690
G1 X55.586 Y29.680 E0.9739
G1 X55.586 Y29.680 E0.9739
G1 X55.586 Y29.680 E0.9739
G1 X56.545 Y29.355 E1.0075
G1 X56.601 Y29.338 E1.0095
G1 X56.911 Y29.255 E1.0202
G1 X56.968 Y29.241 E1.0221
G1 X57.745 Y29.087 E1.0485
G1 X57.803 Y29.077 E1.0504
G1 X58.121 Y29.035 E1.0611
G1 X58.180 Y29.030 E1.0631
G1 X58.970 Y28.978 E1.0894
G1 X59.029 Y28.976 E1.0914
G1 X59.350 Y28.976 E1.1020
G1 X59.409 Y28.978 E1.1040
G1 X60.199 Y29.030 E1.1304
G1 X60.258 Y29.035 E1.1323
G1 X60.576 Y29.077 E1.1430
G1 X60.634 Y29.087 E1.1449
G1 X61.411 Y29.241 E1.1713
G1 X61.469 Y29.255 E1.1733
G1 X61.779 Y29.338 E1.1839
G1 X61.835 Y29.355 E1.1859
G1 X62.585 Y29.610 E1.2122
G1 X62.640 Y29.630 E1.2142
G1 X62.936 Y29.753 E1.2249
G1 X62.990 Y29.777 E1.2268
G1 X63.700 Y30.128 E1.2532
G1 X63.752 Y30.155 E1.2551
G1 X64.030 Y30.316 E1.2658
G1 X64.080 Y30.347 E1.2678
G1 X64.739 Y30.787 E1.2941
G1 X64.787 Y30.822 E1.2961
G1 X65.041 Y31.017 E1.3067
G1 X65.087 Y31.054 E1.3087
G1 X65.293 Y31.235 E1.3178
G1 X65.499 Y31.054 E1.3269
G1 X65.545 Y31.017 E1.3289
G1 X65.799 Y30.822 E1.3396
G1 X65.847 Y30.787 E1.3415
G1 X66.506 Y30.347 E1.3679
G1 X66.556 Y30.316 E1.3698
G1 X66.834 Y30.156 E1.3805
G1 X66.886 Y30.128 E1.3825
G1 X67.596 Y29.777 E1.4088
G1 X67.650 Y29.753 E1.4108
G1 X67.946 Y29.630 E1.4214
G1 X68.001 Y29.610 E1.4234
G1 X68.751 Y29.355 E1.4497
G1 X68.808 Y29.338 E1.4517
G1 X69.118 Y29.255 E1.4624
G1 X69.175 Y29.241 E1.4643
G1 X69.952 Y29.087 E1.4907
G1 X70.010 Y29.077 E1.4926
G1 X70.328 Y29.035 E1.5033
G1 X70.387 Y29.030 E1.5053
G1 X71.177 Y28.978 E1.5316
G1 X71.236 Y28.976 E1.5336
G1 X71.557 Y28.976 E1.5442
G1 X71.616 Y28.978 E1.5462
G1 X72.406 Y29.030 E1.5725
G1 X72.465 Y29.035 E1.5745
G1 X72.783 Y29.077 E1.5852
G1 X72.841 Y29.087 E1.5871
G1 X73.636 Y29.245 E1.6141
G1 X73.699 Y29.260 E1.6163
G1 X74.043 Y29.355 E1.6281
G1 X74.106 Y29.375 E1.6303
G1 X74.857 Y29.642 E1.6568
G1 X75.000 Y29.680 E1.6617
G1 X75.000 Y29.680 E1.6617
G1 X75.000 Y29.680 E1.6617
G1 X75.958 Y29.355 E1.6954
G1 X76.015 Y29.338 E1.6974
G1 X76.325 Y29.255 E1.7080
G1 X76.382 Y29.241 E1.7100
G1 X77.159 Y29.087 E1.7363
G1 X77.217 Y29.077 E1.7383
G1 X77.535 Y29.035 E1.7490
G1 X77.594 Y29.030 E1.7509
G1 X78.384 Y28.978 E1.7773
G1 X78.443 Y28.976 E1.7792
G1 X78.764 Y28.976 E1.7899
G1 X78.823 Y28.978 E1.7919
G1 X79.613 Y29.030 E1.8182
G1 X79.672 Y29.035 E1.8202
G1 X79.990 Y29.077 E1.8308
G1 X80.048 Y29.087 E1.8328
G1 X80.825 Y29.241 E1.8591
G1 X80.882 Y29.255 E1.8611
G1 X81.192 Y29.338 E1.8718
G1 X81.249 Y29.355 E1.8737
G1 X81.999 Y29.610 E1.9001
G1 X82.054 Y29.630 E1.9020
G1 X82.350 Y29.753 E1.9127
G1 X82.404 Y29.777 E1.9147
G1 X83.114 Y30.128 E1.9410
G1 X83.166 Y30.156 E1.9430
G1 X83.444 Y30.316 E1.9537
G1 X83.494 Y30.347 E1.9556
G1 X84.153 Y30.787 E1.9820
G1 X84.201 Y30.822 E1.9839
G1 X84.455 Y31.017 E1.9946
G1 X84.501 Y31.054 E1.9965
G1 X84.707 Y31.235 E2.0057
G1 X84.913 Y31.054 E2.0148
G1 X84.959 Y31.017 E2.0167
G1 X85.213 Y30.822 E2.0274
G1 X85.261 Y30.787 E2.0294
G1 X85.920 Y30.347 E2.0557
G1 X85.970 Y30.316 E2.0577
G1 X86.247 Y30.156 E2.0684
G1 X86.299 Y30.128 E2.0703
G1 X87.010 Y29.777 E2.0967
G1 X87.064 Y29.753 E2.0986
G1 X87.360 Y29.630 E2.1093
G1 X87.415 Y29.610 E2.1112
G1 X88.165 Y29.355 E2.1376
G1 X88.222 Y29.338 E2.1396
G1 X88.531 Y29.255 E2.1502
G1 X88.589 Y29.241 E2.1522
G1 X89.366 Y29.087 E2.1785
G1 X89.424 Y29.077 E2.1805
G1 X89.742 Y29.035 E2.1912
G1 X89.801 Y29.030 E2.1931
G1 X90.591 Y28.978 E2.2195
G1 X90.650 Y28.976 E2.2214
G1 X90.971 Y28.976 E2.2321
G1 X91.030 Y28.978 E2.2341
G1 X91.820 Y29.030 E2.2604
G1 X91.879 Y29.035 E2.2624
G1 X92.197 Y29.077 E2.2730
G1 X92.255 Y29.087 E2.2750
G1 X93.049 Y29.245 E2.3019
G1 X93.113 Y29.260 E2.3041
G1 X93.457 Y29.355 E2.3160
G1 X93.519 Y29.375 E2.3182
G1 X94.271 Y29.642 E2.3447
G1 X94.414 Y29.680 E2.3496
G1 X94.414 Y29.680 E2.3496
G1 X95.372 Y29.355 E2.3833
G1 X95.428 Y29.338 E2.3852
G1 X95.738 Y29.255 E2.3959
G1 X95.796 Y29.241 E2.3979
G1 X96.573 Y29.087 E2.4242
G1 X96.631 Y29.077 E2.4262
G1 X96.949 Y29.035 E2.4368
G1 X97.007 Y29.030 E2.4388
G1 X97.798 Y28.978 E2.4651
G1 X97.857 Y28.976 E2.4671
G1 X98.178 Y28.976 E2.4778
G1 X98.236 Y28.978 E2.4797
G1 X99.027 Y29.030 E2.5061
G1 X99.085 Y29.035 E2.5080
G1 X99.404 Y29.077 E2.5187
G1 X99.462 Y29.087 E2.5207
G1 X100.239 Y29.241 E2.5470
G1 X100.296 Y29.255 E2.5490
G1 X100.606 Y29.338 E2.5596
G1 X100.662 Y29.355 E2.5616
G1 X101.412 Y29.610 E2.5879
G1 X101.468 Y29.630 E2.5899
G1 X101.764 Y29.753 E2.6006
G1 X101.817 Y29.777 E2.6025
G1 X102.528 Y30.128 E2.6289
G1 X102.580 Y30.156 E2.6308
G1 X102.858 Y30.316 E2.6415
G1 X102.908 Y30.347 E2.6435
G1 X103.567 Y30.787 E2.6698
G1 X103.614 Y30.822 E2.6718
G1 X103.869 Y31.017 E2.6824
G1 X103.914 Y31.054 E2.6844
G1 X104.510 Y31.576 E2.7108
G1 X104.553 Y31.617 E2.7127
G1 X104.780 Y31.843 E2.7234
G1 X104.820 Y31.886 E2.7253
G1 X105.342 Y32.482 E2.7517
G1 X105.380 Y32.528 E2.7536
G1 X105.575 Y32.782 E2.7643
G1 X105.609 Y32.830 E2.7663
G1 X106.049 Y33.489 E2.7926
G1 X106.081 Y33.539 E2.7946
G1 X106.241 Y33.817 E2.8053
G1 X106.269 Y33.869 E2.8072
G1 X106.619 Y34.579 E2.8336
G1 X106.643 Y34.633 E2.8355
G1 X106.766 Y34.929 E2.8462
G1 X106.787 Y34.984 E2.8481
G1 X107.042 Y35.734 E2.8745
G1 X107.059 Y35.791 E2.8765
G1 X107.142 Y36.101 E2.8871
G1 X107.155 Y36.158 E2.8891
G1 X107.310 Y36.935 E2.9154
G1 X107.319 Y36.993 E2.9174
G1 X107.361 Y37.311 E2.9281
G1 X107.367 Y37.370 E2.9300
G1 X107.419 Y38.160 E2.9564
G1 X107.421 Y38.219 E2.9583
G1 X107.421 Y38.540 E2.9690
G1 X107.419 Y38.599 E2.9710
G1 X107.367 Y39.389 E2.9973
G1 X107.361 Y39.448 E2.9993
G1 X107.319 Y39.766 E3.0099
G1 X107.310 Y39.824 E3.0119
G1 X107.155 Y40.601 E3.0382
G1 X107.142 Y40.658 E3.0402
G1 X107.059 Y40.968 E3.0509
G1 X107.042 Y41.024 E3.0528
G1 X106.787 Y41.775 E3.0792
G1 X106.766 Y41.830 E3.0811
G1 X106.643 Y42.126 E3.0918
G1 X106.619 Y42.180 E3.0938
G1 X106.269 Y42.890 E3.1201
G1 X106.241 Y42.942 E3.1221
G1 X106.081 Y43.220 E3.1327
G1 X106.049 Y43.270 E3.1347
G1 X105.609 Y43.929 E3.1610
G1 X105.575 Y43.977 E3.1630
G1 X105.380 Y44.231 E3.1737
G1 X105.342 Y44.277 E3.1756
G1 X105.162 Y44.483 E3.1848
G1 X105.342 Y44.689 E3.1939
G1 X105.380 Y44.735 E3.1958
G1 X105.575 Y44.989 E3.2065
G1 X105.609 Y45.037 E3.2085
G1 X106.049 Y45.696 E3.2348
G1 X106.081 Y45.746 E3.2368
G1 X106.241 Y46.023 E3.2474
G1 X106.269 Y46.075 E3.2494
G1 X106.619 Y46.786 E3.2757
G1 X106.643 Y46.839 E3.2777
G1 X106.766 Y47.136 E3.2884
G1 X106.787 Y47.191 E3.2903
G1 X107.042 Y47.941 E3.3167
G1 X107.059 Y47.998 E3.3186
G1 X107.142 Y48.307 E3.3293
G1 X107.155 Y48.365 E3.3313
G1 X107.310 Y49.142 E3.3576
G1 X107.319 Y49.200 E3.3596
G1 X107.361 Y49.518 E3.3703
G1 X107.367 Y49.577 E3.3722
G1 X107.419 Y50.367 E3.3986
G1 X107.421 Y50.426 E3.4005
G1 X107.421 Y50.747 E3.4112
G1 X107.419 Y50.805 E3.4131
G1 X107.367 Y51.596 E3.4395
G1 X107.361 Y51.655 E3.4415
G1 X107.319 Y51.973 E3.4521
G1 X107.310 Y52.031 E3.4541
G1 X107.155 Y52.808 E3.4804
G1 X107.142 Y52.865 E3.4824
G1 X107.059 Y53.175 E3.4931
G1 X107.042 Y53.231 E3.4950
G1 X106.787 Y53.981 E3.5214
G1 X106.766 Y54.037 E3.5233
G1 X106.643 Y54.333 E3.5340
G1 X106.619 Y54.387 E3.5360
G1 X106.269 Y55.097 E3.5623
G1 X106.241 Y55.149 E3.5643
