; G-Code generated by Simplify3D(R) Version 3.0.1
; Aug 26, 2015 at 4:27:27 PM
; Settings Summary
;   processName,Process1
;   applyToModels,hexCoupler
;   profileName,PrinterBot Simple Metal Custom (modified)
;   profileVersion,2015-05-01 08:00:00
;   baseProfile,Default (modified)
;   printMaterial,PLA
;   printQuality,Medium
;   printExtruders,
;   extruderName,Primary Extruder
;   extruderToolheadNumber,0
;   extruderDiameter,0.4
;   extruderAutoWidth,0
;   extruderWidth,0.4
;   extrusionMultiplier,1
;   extruderUseRetract,1
;   extruderRetractionDistance,1
;   extruderExtraRestartDistance,0
;   extruderRetractionZLift,0
;   extruderRetractionSpeed,1800
;   extruderUseCoasting,0
;   extruderCoastingDistance,0.2
;   extruderUseWipe,0
;   extruderWipeDistance,5
;   primaryExtruder,0
;   layerHeight,0.2
;   topSolidLayers,3
;   bottomSolidLayers,3
;   perimeterOutlines,2
;   printPerimetersInsideOut,1
;   startPointOption,2
;   startPointOriginX,0
;   startPointOriginY,0
;   startPointOriginZ,300
;   sequentialIslands,0
;   spiralVaseMode,0
;   firstLayerHeightPercentage,90
;   firstLayerWidthPercentage,100
;   firstLayerUnderspeed,0.5
;   useRaft,0
;   raftExtruder,0
;   raftLayers,3
;   raftOffset,3
;   raftSeparationDistance,0.14
;   raftInfill,85
;   disableRaftBaseLayers,0
;   useSkirt,1
;   skirtExtruder,0
;   skirtLayers,1
;   skirtOutlines,3
;   skirtOffset,4
;   usePrimePillar,0
;   primePillarExtruder,999
;   primePillarWidth,12
;   primePillarLocation,7
;   primePillarSpeedMultiplier,1
;   useOozeShield,0
;   oozeShieldExtruder,999
;   oozeShieldOffset,2
;   oozeShieldOutlines,1
;   oozeShieldSidewallShape,1
;   oozeShieldSidewallAngle,30
;   oozeShieldSpeedMultiplier,1
;   infillExtruder,0
;   internalInfillPattern,Rectilinear
;   externalInfillPattern,Rectilinear
;   infillPercentage,20
;   outlineOverlapPercentage,15
;   infillExtrusionWidthPercentage,100
;   minInfillLength,5
;   infillLayerInterval,1
;   infillAngles,45,-45
;   overlapInfillAngles,0
;   generateSupport,0
;   supportExtruder,0
;   supportInfillPercentage,30
;   supportExtraInflation,0
;   denseSupportLayers,0
;   denseSupportInfillPercentage,70
;   supportLayerInterval,1
;   supportHorizontalPartOffset,0.3
;   supportUpperSeparationLayers,1
;   supportLowerSeparationLayers,1
;   supportType,0
;   supportGridSpacing,4
;   maxOverhangAngle,45
;   supportAngles,0
;   temperatureName,Primary Extruder,Heated Bed
;   temperatureNumber,0,1
;   temperatureSetpointCount,2,3
;   temperatureSetpointLayers,1,2,1,2,3
;   temperatureSetpointTemperatures,205,195,70,65,60
;   temperatureStabilizeAtStartup,1,1
;   temperatureHeatedBed,0,1
;   temperatureRelayBetweenLayers,0,0
;   temperatureRelayBetweenLoops,0,0
;   fanLayers,1,2
;   fanSpeeds,0,100
;   blipFanToFullPower,1
;   adjustSpeedForCooling,1
;   minSpeedLayerTime,15
;   minCoolingSpeedSlowdown,20
;   increaseFanForCooling,0
;   minFanLayerTime,45
;   maxCoolingFanSpeed,100
;   increaseFanForBridging,0
;   bridgingFanSpeed,100
;   use5D,1
;   relativeEdistances,0
;   allowEaxisZeroing,1
;   independentExtruderAxes,0
;   includeM10123,0
;   stickySupport,1
;   applyToolheadOffsets,0
;   gcodeXoffset,0
;   gcodeYoffset,0
;   gcodeZoffset,0
;   overrideMachineDefinition,1
;   machineTypeOverride,0
;   strokeXoverride,150
;   strokeYoverride,150
;   strokeZoverride,150
;   originOffsetXoverride,0
;   originOffsetYoverride,0
;   originOffsetZoverride,0
;   homeXdirOverride,-1
;   homeYdirOverride,-1
;   homeZdirOverride,-1
;   flipXoverride,1
;   flipYoverride,-1
;   flipZoverride,1
;   toolheadOffsets,0,0|0,0|0,0|0,0|0,0|0,0
;   overrideFirmwareConfiguration,1
;   firmwareTypeOverride,RepRap (Marlin/Repetier/Sprinter)
;   GPXconfigOverride,r2
;   baudRateOverride,250000
;   overridePrinterModels,1
;   printerModelsOverride
;   startingGcode,G28 X0 Y0 ; home X and Y axes, G29 ; probe Z
;   layerChangeGcode,
;   retractionGcode,
;   toolChangeGcode,
;   endingGcode,M104 S0 T0 ; turn off extruder,M140 S0 T1 ; turn off bed,G28 X0 ; home X axis,M84 ; disable motors
;   createX3G,0
;   celebration,0
;   celebrationSong,Random Song
;   createMB5G,0
;   postProcessing,
;   defaultSpeed,2700
;   outlineUnderspeed,0.8
;   solidInfillUnderspeed,0.8
;   supportUnderspeed,0.8
;   rapidXYspeed,4200
;   rapidZspeed,1002
;   minBridgingArea,50
;   bridgingExtraInflation,0
;   bridgingExtrusionMultiplier,1
;   bridgingSpeedMultiplier,1
;   filamentDiameter,1.75
;   filamentPricePerKg,46
;   filamentDensity,1.25
;   useMinPrintHeight,0
;   minPrintHeight,0
;   useMaxPrintHeight,0
;   maxPrintHeight,0
;   useDiaphragm,0
;   diaphragmLayerInterval,20
;   robustSlicing,1
;   mergeAllIntoSolid,0
;   onlyRetractWhenCrossingOutline,1
;   retractBetweenLayers,1
;   useRetractionMinTravel,0
;   retractionMinTravel,3
;   retractWhileWiping,0
;   onlyWipeOutlines,1
;   avoidCrossingOutline,0
;   maxMovementDetourFactor,3
;   toolChangeRetractionDistance,12
;   toolChangeExtraRestartDistance,-0.5
;   toolChangeRetractionSpeed,600
;   allowThinWallGapFill,1
;   thinWallAllowedOverlapPercentage,10
;   horizontalSizeCompensation,0
G90
M82
M106 S0
M140 S70
M190 S70
M104 S205 T0
M109 S205 T0
G28 X0 Y0 ; home X and Y axes
 G29 ; probe Z
G92 E0
G1 E-1.0000 F1800
G1 Z0.180 F1002
; layer 1, Z = 0.18
T0
; tool H0.200 W0.400
; skirt
G1 X56.177 Y68.600 F4200
G1 E0.0000 F540
G92 E0
G1 X56.544 Y68.448 E0.0132 F1310
G1 X71.579 Y68.448 E0.5133
G1 X72.177 Y67.850 E0.5414
G1 X72.544 Y67.698 E0.5546
G1 X77.456 Y67.698 E0.7180
G1 X77.823 Y67.850 E0.7312
G1 X78.421 Y68.448 E0.7593
G1 X93.456 Y68.448 E1.2594
G1 X93.823 Y68.600 E1.2726
G1 X96.448 Y71.225 E1.3961
G1 X96.600 Y71.592 E1.4093
G1 X96.600 Y78.408 E1.6360
G1 X96.448 Y78.775 E1.6492
G1 X93.823 Y81.400 E1.7727
G1 X93.456 Y81.552 E1.7859
G1 X78.421 Y81.552 E2.2860
G1 X77.823 Y82.150 E2.3141
G1 X77.456 Y82.302 E2.3273
G1 X72.544 Y82.302 E2.4907
G1 X72.177 Y82.150 E2.5039
G1 X71.579 Y81.552 E2.5320
G1 X56.544 Y81.552 E3.0321
G1 X56.177 Y81.400 E3.0453
G1 X53.552 Y78.775 E3.1687
G1 X53.400 Y78.408 E3.1820
G1 X53.400 Y71.592 E3.4087
G1 X53.552 Y71.225 E3.4219
G1 X56.177 Y68.600 E3.5453
G1 X56.403 Y68.939 F4200
G92 E0
G1 X56.624 Y68.848 E0.0079 F1310
G1 X71.745 Y68.848 E0.5109
G1 X72.403 Y68.189 E0.5418
G1 X72.624 Y68.098 E0.5498
G1 X77.376 Y68.098 E0.7078
G1 X77.597 Y68.189 E0.7158
G1 X78.255 Y68.848 E0.7468
G1 X93.376 Y68.848 E1.2497
G1 X93.597 Y68.939 E1.2576
G1 X96.109 Y71.451 E1.3758
G1 X96.200 Y71.672 E1.3837
G1 X96.200 Y78.328 E1.6051
G1 X96.109 Y78.549 E1.6130
G1 X93.597 Y81.061 E1.7312
G1 X93.376 Y81.152 E1.7391
G1 X78.255 Y81.152 E2.2421
G1 X77.597 Y81.811 E2.2730
G1 X77.376 Y81.902 E2.2810
G1 X72.624 Y81.902 E2.4390
G1 X72.403 Y81.811 E2.4470
G1 X71.745 Y81.152 E2.4780
G1 X56.624 Y81.152 E2.9809
G1 X56.403 Y81.061 E2.9888
G1 X53.891 Y78.549 E3.1070
G1 X53.800 Y78.328 E3.1149
G1 X53.800 Y71.672 E3.3363
G1 X53.891 Y71.451 E3.3442
G1 X56.403 Y68.939 E3.4624
G1 X56.630 Y69.278 F4200
G92 E0
G1 X56.703 Y69.248 E0.0026 F1310
G1 X71.910 Y69.248 E0.5084
G1 X72.630 Y68.528 E0.5423
G1 X72.703 Y68.498 E0.5449
G1 X77.297 Y68.498 E0.6977
G1 X77.370 Y68.528 E0.7003
G1 X78.090 Y69.248 E0.7342
G1 X93.297 Y69.248 E1.2400
G1 X93.370 Y69.278 E1.2426
G1 X95.770 Y71.678 E1.3555
G1 X95.800 Y71.751 E1.3581
G1 X95.800 Y78.249 E1.5742
G1 X95.770 Y78.322 E1.5769
G1 X93.370 Y80.722 E1.6897
G1 X93.297 Y80.752 E1.6924
G1 X78.090 Y80.752 E2.1982
G1 X77.370 Y81.472 E2.2320
G1 X77.297 Y81.502 E2.2347
G1 X72.703 Y81.502 E2.3874
G1 X72.630 Y81.472 E2.3901
G1 X71.910 Y80.752 E2.4239
G1 X56.703 Y80.752 E2.9297
G1 X56.630 Y80.722 E2.9323
G1 X54.230 Y78.322 E3.0452
G1 X54.200 Y78.249 E3.0479
G1 X54.200 Y71.751 E3.2640
G1 X54.230 Y71.678 E3.2666
G1 X56.630 Y69.278 E3.3795
G92 E0
G1 E-1.0000 F1800
; inner perimeter
G1 X59.000 Y74.048 F4200
G1 E0.0000 F1800
G92 E0
G1 X91.000 Y74.048 E1.0643 F1179
G1 X91.000 Y75.952 E1.1276
G1 X59.000 Y75.952 E2.1920
G1 X59.000 Y74.048 E2.2553
; outer perimeter
G1 X58.600 Y73.648 F4200
G92 E0
G1 X74.600 Y73.648 E0.5322 F1048
G1 X74.600 Y72.898 E0.5571
G1 X75.400 Y72.898 E0.5837
G1 X75.400 Y73.648 E0.6087
G1 X91.400 Y73.648 E1.1408
G1 X91.400 Y76.352 E1.2308
G1 X75.400 Y76.352 E1.7629
G1 X75.400 Y77.102 E1.7879
G1 X74.600 Y77.102 E1.8145
G1 X74.600 Y76.352 E1.8394
G1 X58.600 Y76.352 E2.3716
G1 X58.600 Y73.648 E2.4615
G92 E0
G1 E-1.0000 F1800
; gap fill
G1 X74.944 Y73.359 F4200
G1 E0.0000 F1800
G92 E0
G1 X75.056 Y73.247 E0.0053 F1310
G1 X75.056 Y76.641 F4200
G92 E0
G1 X74.944 Y76.753 E0.0053 F1310
G92 E0
G1 E-1.0000 F1800
; solid layer
G1 X59.340 Y74.821 F4200
G1 E0.0000 F1800
G92 E0
G1 X59.773 Y74.388 E0.0204 F1048
G1 X60.338 Y74.388 E0.0392
G1 X59.340 Y75.387 E0.0861
G1 X59.340 Y75.612 E0.0936
G1 X59.680 Y75.612 E0.1050
G1 X60.904 Y74.388 E0.1625
G1 X61.470 Y74.388 E0.1813
G1 X60.246 Y75.612 E0.2389
G1 X60.812 Y75.612 E0.2577
G1 X62.036 Y74.388 E0.3153
G1 X62.601 Y74.388 E0.3341
G1 X61.377 Y75.612 E0.3917
G1 X61.943 Y75.612 E0.4105
G1 X63.167 Y74.388 E0.4681
G1 X63.733 Y74.388 E0.4869
G1 X62.509 Y75.612 E0.5444
G1 X63.074 Y75.612 E0.5633
G1 X64.298 Y74.388 E0.6208
G1 X64.864 Y74.388 E0.6396
G1 X63.640 Y75.612 E0.6972
G1 X64.206 Y75.612 E0.7160
G1 X65.430 Y74.388 E0.7736
G1 X65.995 Y74.388 E0.7924
G1 X64.771 Y75.612 E0.8500
G1 X65.337 Y75.612 E0.8688
G1 X66.561 Y74.388 E0.9264
G1 X67.127 Y74.388 E0.9452
G1 X65.903 Y75.612 E1.0027
G1 X66.468 Y75.612 E1.0216
G1 X67.692 Y74.388 E1.0791
G1 X68.258 Y74.388 E1.0979
G1 X67.034 Y75.612 E1.1555
G1 X67.600 Y75.612 E1.1743
G1 X68.824 Y74.388 E1.2319
G1 X69.389 Y74.388 E1.2507
G1 X68.166 Y75.612 E1.3083
G1 X68.731 Y75.612 E1.3271
G1 X69.955 Y74.388 E1.3847
G1 X70.521 Y74.388 E1.4035
G1 X69.297 Y75.612 E1.4611
G1 X69.863 Y75.612 E1.4799
G1 X71.087 Y74.388 E1.5374
G1 X71.652 Y74.388 E1.5563
G1 X70.428 Y75.612 E1.6138
G1 X70.994 Y75.612 E1.6326
G1 X72.218 Y74.388 E1.6902
G1 X72.784 Y74.388 E1.7090
G1 X71.560 Y75.612 E1.7666
G1 X72.125 Y75.612 E1.7854
G1 X73.349 Y74.388 E1.8430
G1 X73.915 Y74.388 E1.8618
G1 X72.691 Y75.612 E1.9194
G1 X73.257 Y75.612 E1.9382
G1 X74.481 Y74.388 E1.9957
G1 X75.046 Y74.388 E2.0146
G1 X73.822 Y75.612 E2.0721
G1 X74.388 Y75.612 E2.0909
G1 X75.612 Y74.388 E2.1485
G1 X76.178 Y74.388 E2.1673
G1 X74.954 Y75.612 E2.2249
G1 X75.519 Y75.612 E2.2437
G1 X76.743 Y74.388 E2.3013
G1 X77.309 Y74.388 E2.3201
G1 X76.085 Y75.612 E2.3777
G1 X76.651 Y75.612 E2.3965
G1 X77.875 Y74.388 E2.4540
G1 X78.440 Y74.388 E2.4729
G1 X77.217 Y75.612 E2.5304
G1 X77.782 Y75.612 E2.5492
G1 X79.006 Y74.388 E2.6068
G1 X79.572 Y74.388 E2.6256
G1 X78.348 Y75.612 E2.6832
G1 X78.914 Y75.612 E2.7020
G1 X80.137 Y74.388 E2.7596
G1 X80.703 Y74.388 E2.7784
G1 X79.479 Y75.612 E2.8360
G1 X80.045 Y75.612 E2.8548
G1 X81.269 Y74.388 E2.9124
G1 X81.835 Y74.388 E2.9312
G1 X80.611 Y75.612 E2.9887
G1 X81.176 Y75.612 E3.0076
G1 X82.400 Y74.388 E3.0651
G1 X82.966 Y74.388 E3.0839
G1 X81.742 Y75.612 E3.1415
G1 X82.308 Y75.612 E3.1603
G1 X83.532 Y74.388 E3.2179
G1 X84.097 Y74.388 E3.2367
G1 X82.873 Y75.612 E3.2943
G1 X83.439 Y75.612 E3.3131
G1 X84.663 Y74.388 E3.3707
G1 X85.229 Y74.388 E3.3895
G1 X84.005 Y75.612 E3.4470
G1 X84.570 Y75.612 E3.4659
G1 X85.794 Y74.388 E3.5234
G1 X86.360 Y74.388 E3.5422
G1 X85.136 Y75.612 E3.5998
G1 X85.702 Y75.612 E3.6186
G1 X86.926 Y74.388 E3.6762
G1 X87.491 Y74.388 E3.6950
G1 X86.267 Y75.612 E3.7526
G1 X86.833 Y75.612 E3.7714
G1 X88.057 Y74.388 E3.8290
G1 X88.623 Y74.388 E3.8478
G1 X87.399 Y75.612 E3.9053
G1 X87.965 Y75.612 E3.9242
G1 X89.188 Y74.388 E3.9817
G1 X89.754 Y74.388 E4.0005
G1 X88.530 Y75.612 E4.0581
G1 X89.096 Y75.612 E4.0769
G1 X90.320 Y74.388 E4.1345
G1 X90.660 Y74.388 E4.1458
G1 X90.660 Y74.614 E4.1533
G1 X89.662 Y75.612 E4.2003
G1 X90.227 Y75.612 E4.2191
G1 X90.660 Y75.179 E4.2394
G92 E0
G1 E-1.0000 F1800
; layer 2, Z = 0.38
M104 S195 T0
M140 S65
M106 S255
; inner perimeter
G1 X91.000 Y76.062 F4200
G1 Z0.380 F1002
G1 E0.0000 F1800
G92 E0
G1 X59.000 Y76.062 E1.0643 F1260
G1 X59.000 Y73.938 E1.1349
G1 X91.000 Y73.938 E2.1993
G1 X91.000 Y76.062 E2.2699
; outer perimeter
G1 X91.400 Y76.462 F4200
G92 E0
G1 X75.400 Y76.462 E0.5322 F1120
G1 X75.400 Y77.212 E0.5571
G1 X74.600 Y77.212 E0.5837
G1 X74.600 Y76.462 E0.6087
G1 X58.600 Y76.462 E1.1408
G1 X58.600 Y73.538 E1.2381
G1 X74.600 Y73.538 E1.7702
G1 X74.600 Y72.788 E1.7952
G1 X75.400 Y72.788 E1.8218
G1 X75.400 Y73.538 E1.8467
G1 X91.400 Y73.538 E2.3789
G1 X91.400 Y76.462 E2.4761
G92 E0
G1 E-1.0000 F1800
; gap fill
G1 X75.056 Y76.753 F4200
G1 E0.0000 F1800
G92 E0
G1 X74.944 Y76.641 E0.0053 F1399
G1 X75.056 Y73.359 F4200
G92 E0
G1 X74.944 Y73.247 E0.0053 F1399
G92 E0
G1 E-1.0000 F1800
; solid layer
G1 X90.118 Y74.278 F4200
G1 E0.0000 F1800
G92 E0
G1 X90.660 Y74.821 E0.0255 F1120
G1 X90.660 Y75.386 E0.0443
G1 X89.552 Y74.278 E0.0965
G1 X88.986 Y74.278 E0.1153
G1 X90.429 Y75.722 E0.1832
G1 X89.864 Y75.722 E0.2020
G1 X88.420 Y74.278 E0.2699
G1 X87.855 Y74.278 E0.2887
G1 X89.298 Y75.722 E0.3566
G1 X88.732 Y75.722 E0.3754
G1 X87.289 Y74.278 E0.4433
G1 X86.723 Y74.278 E0.4621
G1 X88.167 Y75.722 E0.5300
G1 X87.601 Y75.722 E0.5488
G1 X86.158 Y74.278 E0.6167
G1 X85.592 Y74.278 E0.6355
G1 X87.035 Y75.722 E0.7034
G1 X86.470 Y75.722 E0.7222
G1 X85.026 Y74.278 E0.7901
G1 X84.461 Y74.278 E0.8089
G1 X85.904 Y75.722 E0.8768
G1 X85.338 Y75.722 E0.8956
G1 X83.895 Y74.278 E0.9635
G1 X83.329 Y74.278 E0.9823
G1 X84.773 Y75.722 E1.0502
G1 X84.207 Y75.722 E1.0690
G1 X82.764 Y74.278 E1.1369
G1 X82.198 Y74.278 E1.1557
G1 X83.641 Y75.722 E1.2236
G1 X83.076 Y75.722 E1.2424
G1 X81.632 Y74.278 E1.3103
G1 X81.067 Y74.278 E1.3291
G1 X82.510 Y75.722 E1.3970
G1 X81.944 Y75.722 E1.4158
G1 X80.501 Y74.278 E1.4837
G1 X79.935 Y74.278 E1.5025
G1 X81.379 Y75.722 E1.5704
G1 X80.813 Y75.722 E1.5892
G1 X79.370 Y74.278 E1.6571
G1 X78.804 Y74.278 E1.6759
G1 X80.247 Y75.722 E1.7438
G1 X79.681 Y75.722 E1.7626
G1 X78.238 Y74.278 E1.8305
G1 X77.672 Y74.278 E1.8493
G1 X79.116 Y75.722 E1.9172
G1 X78.550 Y75.722 E1.9360
G1 X77.107 Y74.278 E2.0039
G1 X76.541 Y74.278 E2.0227
G1 X77.984 Y75.722 E2.0906
G1 X77.419 Y75.722 E2.1094
G1 X75.975 Y74.278 E2.1773
G1 X75.410 Y74.278 E2.1961
G1 X76.853 Y75.722 E2.2640
G1 X76.287 Y75.722 E2.2828
G1 X74.844 Y74.278 E2.3507
G1 X74.278 Y74.278 E2.3696
G1 X75.722 Y75.722 E2.4374
G1 X75.156 Y75.722 E2.4563
G1 X73.713 Y74.278 E2.5241
G1 X73.147 Y74.278 E2.5430
G1 X74.590 Y75.722 E2.6108
G1 X74.025 Y75.722 E2.6297
G1 X72.581 Y74.278 E2.6975
G1 X72.016 Y74.278 E2.7164
G1 X73.459 Y75.722 E2.7843
G1 X72.893 Y75.722 E2.8031
G1 X71.450 Y74.278 E2.8710
G1 X70.884 Y74.278 E2.8898
G1 X72.328 Y75.722 E2.9577
G1 X71.762 Y75.722 E2.9765
G1 X70.319 Y74.278 E3.0444
G1 X69.753 Y74.278 E3.0632
G1 X71.196 Y75.722 E3.1311
G1 X70.630 Y75.722 E3.1499
G1 X69.187 Y74.278 E3.2178
G1 X68.622 Y74.278 E3.2366
G1 X70.065 Y75.722 E3.3045
G1 X69.499 Y75.722 E3.3233
G1 X68.056 Y74.278 E3.3912
G1 X67.490 Y74.278 E3.4100
G1 X68.933 Y75.722 E3.4779
G1 X68.368 Y75.722 E3.4967
G1 X66.924 Y74.278 E3.5646
G1 X66.359 Y74.278 E3.5834
G1 X67.802 Y75.722 E3.6513
G1 X67.236 Y75.722 E3.6701
G1 X65.793 Y74.278 E3.7380
G1 X65.227 Y74.278 E3.7568
G1 X66.671 Y75.722 E3.8247
G1 X66.105 Y75.722 E3.8435
G1 X64.662 Y74.278 E3.9114
G1 X64.096 Y74.278 E3.9302
G1 X65.539 Y75.722 E3.9981
G1 X64.974 Y75.722 E4.0169
G1 X63.530 Y74.278 E4.0848
G1 X62.965 Y74.278 E4.1036
G1 X64.408 Y75.722 E4.1715
G1 X63.842 Y75.722 E4.1903
G1 X62.399 Y74.278 E4.2582
G1 X61.833 Y74.278 E4.2770
G1 X63.277 Y75.722 E4.3449
G1 X62.711 Y75.722 E4.3637
G1 X61.268 Y74.278 E4.4316
G1 X60.702 Y74.278 E4.4504
G1 X62.145 Y75.722 E4.5183
G1 X61.580 Y75.722 E4.5371
G1 X60.136 Y74.278 E4.6050
G1 X59.571 Y74.278 E4.6238
G1 X61.014 Y75.722 E4.6917
G1 X60.448 Y75.722 E4.7105
G1 X59.340 Y74.613 E4.7627
G1 X59.340 Y75.179 E4.7815
G1 X59.882 Y75.722 E4.8070
G92 E0
G1 E-1.0000 F1800
; layer 3, Z = 0.58
M140 S60
; inner perimeter
G1 X59.000 Y76.177 F4200
G1 Z0.580 F1002
G1 E0.0000 F1800
G92 E0
G1 X59.000 Y73.823 E0.0783 F1351
G1 X91.000 Y73.823 E1.1426
G1 X91.000 Y76.177 E1.2209
G1 X59.000 Y76.177 E2.2853
; outer perimeter
G1 X58.600 Y76.577 F4200
G92 E0
G1 X58.600 Y73.423 E0.1049 F1200
